X: 8062
T: Connie The Soldier
R: jig
M: 6/8
K: Gmajor
d2 c|:A2 A A2 d|cAG EED|DGG EGG|DGG EFG|ABA A2 d|
cAf e3|1 ded cGE|DED d2 c:|2 ded cGe|ded d2 e||
|:fdd Add|fdd d2 e|fad eg/e/d|cAG A2 e|
fa/f/f eg/e/e|dc/d/d cAG|A2 A cGE|1 DED d2 e:|2 EDD d2 c||

